icons/svg/shields/h_chimney_shield.svg

<?xml version="1.0" encoding="UTF-8" standalone="no"?>
<!-- Created with Inkscape (http://www.inkscape.org/) -->

<svg
   xmlns:dc="http://purl.org/dc/elements/1.1/"
   xmlns:cc="http://creativecommons.org/ns#"
   xmlns:rdf="http://www.w3.org/1999/02/22-rdf-syntax-ns#"
   xmlns:svg="http://www.w3.org/2000/svg"
   xmlns="http://www.w3.org/2000/svg"
   xmlns:sodipodi="http://sodipodi.sourceforge.net/DTD/sodipodi-0.dtd"
   xmlns:inkscape="http://www.inkscape.org/namespaces/inkscape"
   version="1.0"
   width="16"
   height="16"
   id="svg2"
   sodipodi:version="0.32"
   inkscape:version="0.91 r13725"
   sodipodi:docname="h_chimney_shield.svg"
   inkscape:output_extension="org.inkscape.output.svg.inkscape">
  <metadata
     id="metadata10">
    <rdf:RDF>
      <cc:Work
         rdf:about="">
        <dc:format>image/svg+xml</dc:format>
        <dc:type
           rdf:resource="http://purl.org/dc/dcmitype/StillImage" />
        <cc:license
           rdf:resource="http://web.resource.org/cc/PublicDomain" />
        <dc:language>en</dc:language>
        <dc:title />
      </cc:Work>
    </rdf:RDF>
  </metadata>
  <sodipodi:namedview
     inkscape:window-height="1006"
     inkscape:window-width="1920"
     inkscape:pageshadow="2"
     inkscape:pageopacity="0.0"
     guidetolerance="10.0"
     gridtolerance="10.0"
     objecttolerance="10.0"
     borderopacity="1.0"
     bordercolor="#666666"
     pagecolor="#ffffff"
     id="base"
     showgrid="false"
     inkscape:zoom="32"
     inkscape:cx="6.0638001"
     inkscape:cy="7.4839151"
     inkscape:window-x="1920"
     inkscape:window-y="0"
     inkscape:current-layer="svg2"
     inkscape:window-maximized="1" />
  <defs
     id="defs4">
    <inkscape:perspective
       sodipodi:type="inkscape:persp3d"
       inkscape:vp_x="0 : 290 : 1"
       inkscape:vp_y="0 : 1000 : 0"
       inkscape:vp_z="580 : 290 : 1"
       inkscape:persp3d-origin="290 : 193.33333 : 1"
       id="perspective12" />
    <style
       type="text/css"
       id="style6">
   
    .fil0 {fill:#EF7900}
   
  </style>
    <inkscape:perspective
       id="perspective6807"
       inkscape:persp3d-origin="29.116032 : 19.410688 : 1"
       inkscape:vp_z="58.232063 : 29.116032 : 1"
       inkscape:vp_y="0 : 1000 : 0"
       inkscape:vp_x="0 : 29.116032 : 1"
       sodipodi:type="inkscape:persp3d" />
    <inkscape:perspective
       id="perspective6954"
       inkscape:persp3d-origin="290 : 193.33333 : 1"
       inkscape:vp_z="580 : 290 : 1"
       inkscape:vp_y="0 : 1000 : 0"
       inkscape:vp_x="0 : 290 : 1"
       sodipodi:type="inkscape:persp3d" />
    <inkscape:perspective
       id="perspective2541"
       inkscape:persp3d-origin="240 : 160 : 1"
       inkscape:vp_z="480 : 240 : 1"
       inkscape:vp_y="0 : 1000 : 0"
       inkscape:vp_x="0 : 240 : 1"
       sodipodi:type="inkscape:persp3d" />
    <inkscape:perspective
       id="perspective2750"
       inkscape:persp3d-origin="215 : 143.33333 : 1"
       inkscape:vp_z="430 : 215 : 1"
       inkscape:vp_y="0 : 1000 : 0"
       inkscape:vp_x="0 : 215 : 1"
       sodipodi:type="inkscape:persp3d" />
    <inkscape:perspective
       id="perspective3730"
       inkscape:persp3d-origin="88.929146 : 101.19778 : 1"
       inkscape:vp_z="177.85829 : 151.79668 : 1"
       inkscape:vp_y="0 : 1000 : 0"
       inkscape:vp_x="0 : 151.79668 : 1"
       sodipodi:type="inkscape:persp3d" />
    <inkscape:perspective
       id="perspective4168"
       inkscape:persp3d-origin="16 : 10.666667 : 1"
       inkscape:vp_z="32 : 16 : 1"
       inkscape:vp_y="0 : 1000 : 0"
       inkscape:vp_x="0 : 16 : 1"
       sodipodi:type="inkscape:persp3d" />
  </defs>
  <path
     style="opacity:0.85399996;fill:#ebe7e4;fill-opacity:1;stroke:none"
     d="M 12.849015,1.4988577 C 12.277738,1.5020387 11.753704,1.6597179 11.268921,1.7934514 10.857205,1.9070287 10.725438,1.9592362 10.519046,2.0344827 10.122746,1.8959673 9.6998366,1.9038995 9.1532025,2.0612639 8.2346394,2.3256988 7.761914,2.8121856 7.492765,3.1325139 7.3955287,3.1471684 7.3822078,3.133147 7.2517337,3.1592952 6.9459352,3.22058 6.6476019,3.2307617 6.207265,3.5610139 5.9228915,3.774294 5.8130275,3.8489529 5.5912962,4.0698577 c 0.017305,-0.00812 0.026804,-0.010873 0.107125,-0.026781 0.022057,-0.00437 0.098722,0.00411 0.1339063,0 -0.4814368,0.013635 -0.9573239,0.4075206 -1.0980313,0.7230938 -0.049951,0.1120284 -0.065022,0.203505 -0.080344,0.2945937 -2.158e-4,0.00128 -0.026571,-0.00128 -0.026781,0 A 0.96756354,0.96756354 0 0 0 4.2254525,5.7302952 L 3.2345462,13.282608 a 0.96756354,0.96756354 0 0 0 0.4552813,0.964125 c 0,0 0.3122855,0.141699 0.64275,0.21425 0.3304645,0.07255 0.792767,0.135634 1.4729687,0.133906 0.6781495,-0.0017 1.1259616,-0.05617 1.4461875,-0.133906 0.160113,-0.03887 0.2919527,-0.08343 0.4017188,-0.133907 0.1097661,-0.05047 0.2678125,-0.160687 0.2678125,-0.160687 a 0.96756354,0.96756354 0 0 0 0.3481562,-0.857 L 7.492765,5.9445452 c 0.141053,-0.037309 0.2705632,-0.078076 0.3749375,-0.1339063 0.0282,-0.015085 0.053111,-0.036701 0.080344,-0.053562 0.3308018,0.055852 0.8543749,0.1747415 1.6872188,-0.053562 0.3126421,-0.085703 0.554112,-0.2027323 0.776656,-0.4017187 1.782969,-0.053205 2.768445,-0.2186031 3.374438,-0.7766563 0.1348,-0.124136 0.09087,-0.3097963 0.160687,-0.4820625 0.131806,-0.058717 0.279099,-0.083476 0.401719,-0.21425 0.196879,-0.2099708 0.30019,-0.5256763 0.321375,-0.8034375 a 0.86250905,0.86250905 0 0 0 0,-0.053562 C 14.666461,2.6222832 14.530735,2.2044263 14.268421,1.9541389 14.006107,1.7038515 13.690454,1.6035087 13.438202,1.5524202 13.237916,1.5118561 13.03944,1.4977973 12.849015,1.4988577 Z"
     id="path3802"
     inkscape:connector-curvature="0" />
</svg>

<svg width="16" height="16" viewBox="0 0 16 16" fill="none" xmlns="http://www.w3.org/2000/svg">
<path opacity="0.854" d="M12.849 1.49883C12.2777 1.50202 11.7537 1.65969 11.2689 1.79343C10.8572 1.90701 10.7254 1.95921 10.5191 2.03446C10.1228 1.89594 9.69984 1.90388 9.15321 2.06124C8.23464 2.32568 7.76192 2.81216 7.49277 3.13249C7.39553 3.14715 7.38221 3.13312 7.25174 3.15927C6.94594 3.22056 6.64761 3.23074 6.20727 3.56099C5.9229 3.77427 5.81303 3.84893 5.5913 4.06983C5.60861 4.06171 5.6181 4.05896 5.69843 4.04305C5.72048 4.03868 5.79715 4.04716 5.83233 4.04305C5.35089 4.05669 4.87501 4.45057 4.7343 4.76615C4.68435 4.87818 4.66928 4.96965 4.65396 5.06074C4.65374 5.06202 4.62739 5.05946 4.62718 5.06074C4.51738 5.13831 4.42495 5.23791 4.35578 5.35319C4.28661 5.46846 4.24223 5.59689 4.22546 5.73027L3.23455 13.2826C3.20766 13.4702 3.23647 13.6616 3.31741 13.833C3.39835 14.0044 3.52785 14.1483 3.68983 14.2467C3.68983 14.2467 4.00212 14.3884 4.33258 14.461C4.66305 14.5335 5.12535 14.5966 5.80555 14.5949C6.4837 14.5932 6.93151 14.5387 7.25174 14.461C7.41185 14.4221 7.54369 14.3775 7.65346 14.3271C7.76322 14.2766 7.92127 14.1664 7.92127 14.1664C8.04624 14.0639 8.14358 13.9319 8.20439 13.7822C8.26521 13.6325 8.28757 13.4699 8.26943 13.3094L7.49277 5.94452C7.63382 5.90721 7.76333 5.86645 7.86771 5.81062C7.89591 5.79553 7.92082 5.77391 7.94805 5.75705C8.27885 5.81291 8.80243 5.9318 9.63527 5.70349C9.94791 5.61779 10.1894 5.50076 10.4119 5.30177C12.1949 5.24857 13.1804 5.08317 13.7864 4.52512C13.9212 4.40098 13.8772 4.21532 13.9471 4.04305C14.0789 3.98434 14.2261 3.95958 14.3488 3.8288C14.5456 3.61883 14.649 3.30313 14.6701 3.02537C14.6707 3.00752 14.6707 2.98965 14.6701 2.9718C14.6665 2.62226 14.5307 2.2044 14.2684 1.95412C14.0061 1.70383 13.6905 1.60349 13.4382 1.5524C13.2379 1.51183 13.0394 1.49777 12.849 1.49883Z" fill="#EBE7E4"/>
</svg>
